X:1
T:The Little Major
M:3/4
L:1/8
K:C
 E^D| G3 cE A| G2 G2 cE| D3 EF G| E4 G^F| G3 cE A| G2 G2 cc| BG A2(3^F3.99999962500005/5.99999925000009^F3.99999962500005/5.99999925000009G3.99999962500005/5.99999925000009^F3.99999962500005/5.99999925000009G3.99999962500005/5.99999925000009A3.99999962500005/5.99999925000009|\
 G4 GF| E3 ed c| A2 c2 dc| B3 GA B| c4 G^F| G3 cE A| G2 G2 cE| D3 EF G|\
 E4 GF| E3 ed c| A2 c2 dc| B3 GA B| c4 G^F| G3 cE A| G2 G2 cE| D3 EF G|\
 E4||
